Project/img/users.svg

<svg xmlns="http://www.w3.org/2000/svg" xmlns:xlink="http://www.w3.org/1999/xlink" preserveAspectRatio="xMidYMid" width="31.938" height="22.53" viewBox="0 0 31.938 22.53">
  <defs>
    <style>
      .cls-1 {
        fill: #fff;
        fill-rule: evenodd;
      }
    </style>
  </defs>
  <path d="M31.950,21.533 C31.950,21.534 31.950,21.535 31.950,21.535 C31.950,22.084 31.504,22.527 30.955,22.527 L23.543,22.527 C24.099,22.404 24.515,21.913 24.515,21.322 C24.515,21.321 24.514,21.321 24.514,21.320 L24.515,21.320 C24.515,21.320 24.515,16.816 21.214,15.178 C19.802,14.478 19.709,14.612 19.008,14.446 L19.028,12.496 C19.028,12.496 18.257,11.908 18.017,10.065 C17.535,10.205 17.376,9.501 17.347,9.053 C17.321,8.622 17.068,7.270 17.657,7.392 C17.536,6.490 17.450,5.677 17.492,5.245 C17.640,3.733 19.102,2.152 21.353,2.038 C24.002,2.152 25.051,3.732 25.198,5.244 C25.241,5.676 25.147,6.490 25.026,7.390 C25.615,7.270 25.359,8.618 25.330,9.051 C25.305,9.499 25.142,10.200 24.661,10.060 C24.420,11.903 23.649,12.486 23.649,12.486 L23.667,14.434 C23.667,14.434 24.155,14.712 26.213,15.561 C28.271,16.412 27.625,15.775 29.301,16.606 C31.950,17.920 31.950,21.533 31.950,21.533 L31.950,21.533 ZM17.023,14.870 C19.285,15.805 18.575,15.105 20.418,16.020 C23.330,17.463 23.330,21.435 23.330,21.435 L23.329,21.435 C23.329,21.435 23.329,21.436 23.329,21.438 C23.329,22.040 22.840,22.527 22.236,22.527 L1.093,22.527 C0.489,22.527 -0.000,22.040 -0.000,21.438 C-0.000,21.436 0.000,21.435 0.000,21.435 L-0.001,21.435 C-0.001,21.435 -0.001,17.463 2.911,16.018 C4.754,15.105 4.044,15.847 6.306,14.912 C8.568,13.979 9.104,13.652 9.104,13.652 L9.125,11.500 C9.125,11.500 8.278,10.854 8.015,8.830 C7.485,8.983 7.310,8.209 7.279,7.717 C7.250,7.242 6.972,5.757 7.618,5.892 C7.486,4.900 7.391,4.006 7.438,3.533 C7.600,1.869 9.207,0.133 11.682,0.005 C14.593,0.131 15.747,1.868 15.908,3.530 C15.955,4.005 15.852,4.899 15.719,5.889 C16.366,5.757 16.085,7.239 16.053,7.714 C16.025,8.207 15.846,8.977 15.317,8.824 C15.053,10.850 14.206,11.490 14.206,11.490 L14.225,13.632 C14.225,13.632 14.761,13.936 17.023,14.870 Z" class="cls-1"/>
</svg>

<svg xmlns="http://www.w3.org/2000/svg" width="31.938" height="22.53" preserveAspectRatio="xMidYMid"><defs><style>.cls-1 { fill: #fff; fill-rule: evenodd; }</style></defs><path d="M31.95 21.53c0 .55-.45 1-1 1h-7.4c.55-.13.96-.62.96-1.2.02 0 0 0 0 0h.02s0-4.5-3.3-6.15c-1.42-.7-1.5-.57-2.2-.73V12.5s-.76-.6-1-2.44c-.48.14-.64-.56-.67-1-.03-.44-.28-1.8.3-1.67-.1-.9-.2-1.72-.16-2.16.14-1.5 1.6-3.1 3.85-3.2 2.65.1 3.7 1.7 3.85 3.2.04.44-.05 1.25-.17 2.15.58-.13.33 1.22.3 1.65-.02.45-.2 1.15-.67 1-.24 1.85-1 2.44-1 2.44v1.93s.5.28 2.55 1.13c2.07.85 1.43.2 3.1 1.05 2.65 1.32 2.65 4.93 2.65 4.93zm-14.93-6.66c2.27.94 1.55.24 3.4 1.15 2.9 1.44 2.9 5.4 2.9 5.4s0 .02 0 .02c0 .6-.48 1.1-1.08 1.1H1.1c-.6 0-1.1-.5-1.1-1.1 0 0 0-3.98 2.9-5.42 1.85-.9 1.14-.17 3.4-1.1 2.27-.94 2.8-1.27 2.8-1.27l.03-2.15S8.28 10.85 8 8.83c-.5.15-.7-.62-.72-1.1-.03-.5-.3-1.97.34-1.84-.13-1-.23-1.9-.18-2.37C7.6 1.87 9.2.13 11.68 0c2.9.13 4.07 1.87 4.23 3.53.05.48-.05 1.37-.18 2.36.65-.14.37 1.34.33 1.8-.03.5-.2 1.28-.73 1.12-.27 2.03-1.1 2.67-1.1 2.67v2.13s.54.3 2.8 1.24z" class="cls-1"/></svg>
